src/images/landing/logos/2.svg

<svg width="160" height="50" viewBox="0 0 160 50" fill="none" xmlns="http://www.w3.org/2000/svg">
<path d="M52.0614 21.048V16.9975C52.0614 15.1633 51.2277 14.1698 49.5602 14.1698H45.3156V30.5245H47.5137V23.8756H48.8022L50.2423 30.5245H52.2888L50.7729 23.7228C51.6824 23.4171 52.0614 22.5 52.0614 21.048ZM49.9391 20.9715C49.9391 21.7358 49.636 22.1943 48.9538 22.1943H47.5137V16.3097H48.9538C49.636 16.3097 49.9391 16.6918 49.9391 17.5325V20.9715Z" fill="white"/>
<path d="M58.4292 14.2461H56.3827C54.6394 14.2461 53.8056 15.1632 53.8056 17.0738V27.8497C53.8056 29.6839 54.7152 30.601 56.4585 30.601H58.505C60.2483 30.601 61.1579 29.6839 61.1579 27.8497V17.0738C61.0063 15.1632 60.1725 14.2461 58.4292 14.2461ZM58.884 27.6968C58.884 28.3082 58.5808 28.6139 58.0502 28.6139H56.9133C56.2311 28.6139 55.9279 28.3082 55.9279 27.6968V17.1502C55.9279 16.5388 56.2311 16.2331 56.9133 16.2331H57.8986C58.5808 16.2331 58.884 16.5388 58.884 17.1502V27.6968Z" fill="white"/>
<path d="M66.8426 14.2461H65.4783C63.7349 14.2461 62.9012 15.1632 62.9012 16.9974V27.7732C62.9012 29.6073 63.7349 30.5244 65.4783 30.5244H66.8426C68.5859 30.5244 69.4197 29.6073 69.4197 27.7732V26.7032H67.2216V27.6203C67.2216 28.2317 66.9184 28.5374 66.3878 28.5374H65.8572C65.2509 28.5374 65.0235 28.2317 65.0235 27.6203V17.1502C65.0235 16.5388 65.3267 16.2331 65.8572 16.2331H66.312C66.9942 16.2331 67.2974 16.5388 67.2974 17.1502V18.8315H69.4955V16.9974C69.4197 15.1632 68.5859 14.2461 66.8426 14.2461Z" fill="white"/>
<path d="M73.3614 14.2461H71.1633V30.601H73.3614V14.2461Z" fill="white"/>
<path d="M73.4372 22.4235V22.5764L76.1658 30.601H78.2881L75.4079 22.3471L77.6817 14.2461H75.711L73.4372 22.4235Z" fill="white"/>
<path d="M81.6987 23.1878H84.5789V21.2007H81.6987V16.2331H84.8821V14.2461H79.5764V30.601H84.8821V28.6139H81.6987V23.1878Z" fill="white"/>
<path d="M85.7156 14.2461V16.2331H87.7621V30.601H89.9602V16.2331H92.0067V14.2461H85.7156Z" fill="white"/>
<path d="M95.4178 14.2461H93.2197V30.601H95.4178V14.2461Z" fill="white"/>
<path d="M99.5863 19.9015L101.936 27.3147V30.601H104.134V14.2461H101.936V22.1178L99.5863 14.2461H97.464V30.601H99.5863V19.9015Z" fill="white"/>
<path d="M105.347 16.2331H107.394V30.601H109.592V16.2331H111.638V14.2461H105.347V16.2331Z" fill="white"/>
<path d="M115.049 23.1878H117.929V21.2007H115.049V16.2331H118.308V14.2461H112.927V30.601H118.308V28.6139H115.049V23.1878Z" fill="white"/>
<path d="M126.57 21.048V16.9975C126.57 15.1633 125.736 14.1698 124.068 14.1698H119.824V30.5245H122.022V23.8756H123.311L124.751 30.5245H126.797L125.281 23.7228C126.115 23.4171 126.57 22.5 126.57 21.048ZM124.372 20.9715C124.372 21.7358 124.068 22.1943 123.386 22.1943H121.946V16.3097H123.386C124.068 16.3097 124.372 16.6918 124.372 17.5325V20.9715Z" fill="white"/>
<path d="M130.588 19.9015L132.861 27.3147V30.601H135.06V14.2461H132.861V22.1178L130.588 14.2461H128.389V30.601H130.588V19.9015Z" fill="white"/>
<path d="M139.228 23.1878H142.109V21.2007H139.228V16.2331H142.488V14.2461H137.106V30.601H142.488V28.6139H139.228V23.1878Z" fill="white"/>
<path d="M143.245 14.2461V16.2331H145.292V30.601H147.49V16.2331H149.536V14.2461H143.245Z" fill="white"/>
<path d="M36.2973 18.5258C37.7374 22.4999 36.9037 27.1618 33.7202 30.3717C31.9011 32.2059 29.6272 33.2758 27.2775 33.5815C26.6712 34.4222 26.1406 35.1865 25.61 35.7979C28.7935 35.7214 31.9011 34.4986 34.3266 32.053C38.268 28.0789 39.1018 22.1942 36.8279 17.4558C36.6763 17.7615 36.5247 18.1436 36.2973 18.5258Z" fill="white"/>
<path d="M15.6807 21.7357C15.9839 19.3665 17.045 17.1502 18.8642 15.3924C21.9718 12.1826 26.5954 11.3419 30.5368 12.7175C30.9158 12.5647 31.219 12.3354 31.5979 12.1826C26.8986 9.96626 21.138 10.8834 17.1966 14.781C14.847 17.1502 13.5584 20.2836 13.4826 23.417C14.089 22.882 14.847 22.347 15.6807 21.7357Z" fill="white"/>
<path d="M35.194 13.807C35.2532 13.8667 35.8297 13.3831 36.4815 12.7268C37.1333 12.0705 37.6137 11.4901 37.5545 11.4304C37.4953 11.3707 36.9189 11.8543 36.267 12.5106C35.6152 13.1669 35.1348 13.7473 35.194 13.807Z" fill="white"/>
<path d="M37.5851 11.418C37.4335 11.3416 29.6265 15.01 22.8806 19.3662C14.6188 24.7159 11.1322 28.2314 11.1322 28.2314C10.9048 28.4607 10.9806 28.69 11.2838 28.69C11.2838 28.69 17.8023 28.9193 19.015 30.142C20.2278 31.3648 20.4552 37.9373 20.4552 37.9373C20.4552 38.243 20.6825 38.3195 20.9099 38.0902C20.9099 38.0902 24.3966 34.5747 29.6265 26.2444C34.0227 19.4426 37.7367 11.5709 37.5851 11.418Z" fill="white"/>
</svg>

<svg width="160" height="50" fill="none" xmlns="http://www.w3.org/2000/svg"><path d="M52.061 21.048v-4.05c0-1.835-.833-2.828-2.5-2.828h-4.245v16.355h2.198v-6.65h1.288l1.44 6.65h2.047l-1.516-6.802c.91-.306 1.288-1.223 1.288-2.675zm-2.122-.076c0 .764-.303 1.222-.985 1.222h-1.44V16.31h1.44c.682 0 .985.382.985 1.223v3.438zM58.43 14.246h-2.047c-1.744 0-2.577.917-2.577 2.828V27.85c0 1.834.91 2.751 2.653 2.751h2.046c1.743 0 2.653-.917 2.653-2.751V17.074c-.152-1.91-.986-2.828-2.729-2.828zm.454 13.45c0 .612-.303.918-.834.918h-1.137c-.682 0-.985-.306-.985-.917V17.15c0-.611.303-.917.985-.917h.986c.682 0 .985.306.985.917v10.547zM66.843 14.246h-1.365c-1.743 0-2.577.917-2.577 2.751v10.776c0 1.834.834 2.751 2.577 2.751h1.365c1.743 0 2.577-.917 2.577-2.75v-1.07h-2.198v.916c0 .612-.304.917-.834.917h-.53c-.607 0-.835-.305-.835-.917V17.15c0-.611.304-.917.834-.917h.455c.682 0 .985.306.985.917v1.681h2.199v-1.834c-.076-1.834-.91-2.75-2.653-2.75zM73.361 14.246h-2.198v16.355h2.198V14.246zM73.437 22.424v.152l2.729 8.025h2.122l-2.88-8.254 2.274-8.1H75.71l-2.274 8.177zM81.699 23.188h2.88V21.2h-2.88v-4.968h3.183v-1.987h-5.306v16.355h5.306v-1.987H81.7v-5.426zM85.716 14.246v1.987h2.046v14.368h2.198V16.233h2.047v-1.987h-6.291zM95.418 14.246H93.22v16.355h2.198V14.246zM99.586 19.901l2.35 7.414V30.6h2.198V14.246h-2.198v7.872l-2.35-7.872h-2.122v16.355h2.122v-10.7zM105.347 16.233h2.047v14.368h2.198V16.233h2.046v-1.987h-6.291v1.987zM115.049 23.188h2.88V21.2h-2.88v-4.968h3.259v-1.987h-5.381v16.355h5.381v-1.987h-3.259v-5.426zM126.57 21.048v-4.05c0-1.835-.834-2.828-2.502-2.828h-4.244v16.355h2.198v-6.65h1.289l1.44 6.65h2.046l-1.516-6.802c.834-.306 1.289-1.223 1.289-2.675zm-2.198-.076c0 .764-.304 1.222-.986 1.222h-1.44V16.31h1.44c.682 0 .986.382.986 1.223v3.438zM130.588 19.901l2.273 7.414V30.6h2.199V14.246h-2.199v7.872l-2.273-7.872h-2.199v16.355h2.199v-10.7zM139.228 23.188h2.881V21.2h-2.881v-4.968h3.26v-1.987h-5.382v16.355h5.382v-1.987h-3.26v-5.426zM143.245 14.246v1.987h2.047v14.368h2.198V16.233h2.046v-1.987h-6.291zM36.297 18.526c1.44 3.974.607 8.636-2.577 11.846a11.058 11.058 0 01-6.442 3.21c-.607.84-1.137 1.605-1.668 2.216 3.184-.077 6.291-1.3 8.717-3.745 3.941-3.974 4.775-9.859 2.5-14.597-.15.306-.302.688-.53 1.07zM15.68 21.736a10.61 10.61 0 013.184-6.344c3.108-3.21 7.731-4.05 11.673-2.675.379-.152.682-.382 1.06-.534-4.698-2.217-10.459-1.3-14.4 2.598-2.35 2.37-3.639 5.503-3.714 8.636.606-.535 1.364-1.07 2.198-1.681zM35.194 13.807c.06.06.636-.424 1.287-1.08.652-.657 1.133-1.237 1.073-1.297-.059-.06-.635.424-1.287 1.08-.652.657-1.132 1.237-1.073 1.297z" fill="#fff"/><path d="M37.585 11.418c-.151-.076-7.959 3.592-14.704 7.948-8.262 5.35-11.749 8.865-11.749 8.865-.227.23-.151.459.152.459 0 0 6.518.23 7.731 1.452 1.213 1.223 1.44 7.795 1.44 7.795 0 .306.228.383.455.153 0 0 3.487-3.515 8.716-11.846 4.397-6.801 8.11-14.673 7.96-14.826z" fill="#fff"/></svg>
